X: 5763
T: Cailin Na Gruige Donna
R: waltz
M: 3/4
K: Gmajor
|:DE/F/|G3A Bc/d/|B2 B2 B2|g3a/g/ f2|d3e e2|
A3d d2|e/d/c/A/ B2 B2|B/A/B/c/ A2 A2|A/G/F G2:|
|:de/f/|g2 g2 g2|a/g/f/g/ a2 a2|fa g2 g2|fd e2 e2|
AB/A/ d2 d2|e/d/c/A/ B2 B2|B/A/B/c/ A2 A2|AG/F/ G2:|
|:DE/F/|G3A Bc/d/|B2 B2 B2|g3a/g/ f2|d3e e2|
A2 d2 d2|e/d/c/A/ B2 B2|B/A/B/c/ A2 A2|AG/F/ G2:|
de/f/|g2 g2 g2|a/g/f/g/ a2 a2|b3a g2|fd e2 e2|
d4 d2|e/d/c/A/ B2 B2|D/G/A/B/ c2 A2|AG/F/ G2:|

